X:843
T:Sir George MacKenzie
R:Reel
B:The Athole Collection
M:C|
L:1/8
K:D
f|d2AF DFAF|d2AF Eece|d2AF DFAF|GBAB FDD:|
|:A|FDAF BGAF|BGAF GEEA|1 FDAF BGAF|A,EGE FDD:|2
FDAF GABg|fdec dDD||

